X: 39128
T: Sweet Flowers Of Milltown, The
R: barndance
M: 4/4
K: Gmajor
|:"G"G2GB AGED|G2GB de d2|"Em"efge dcBA|"D"GBAG EGDE|"G"G2GB AGED|
"G"G2GB de d2|"C"efge dcBG|1 "D"A2GF "G"G2>D2:|2 "D"A2GF "G"Gdef||
"G"g2ge "(D)"a2af|"G"g2ge ded2|"Em"efge dcBA|"D"GBAG EGDf|
"G"g2ge "(D)"a2af|"G"g2ge dedd|"C"efge dcBG|"D"A2GF "G"Gdef|
"G"g2ge "(D)"a2af|"G"g2ge dedd|"Em"efge dcBA|"D"GBAG EGDE|
"G"G2GB AGED|G2GB dedd|"C"efge dcBG|"D"A2GF "G"G3z||

